X: 14
T: Angels from the realms of glory
N: Joyfully
K: G
M: 4/4
L: 1/4
C: From Edward Huws Jones, 12 Days/Xmas
V: 2 name="Vln II" snm="" clef=treble
[DG,]   G G D | (F/D/E/)uF/ G G | [DG,] (G/F/) G D | ([A3/2F/]D/E/)u[A/F/] [BG] z |
u[DG,]  G G D | (F/D/E/)uF/ G G | [DG,] (G/F/) G D | ([A3/2F/]D/E/)u[A/F/] [BG] z |
v[DG,] [BD] !tenuto!C/(E/F/G/) | [EA,] A !tenuto!D/(F/G/A/) | ([B/D/G,/]d/c/B/) (A/G/F/E/) | (F/G/F/E/) D2 |
[DB,] [DA,] [DG,] [DA,] | ([D2B,] C) D2 | [DG,] [DB] !tenuto!C/(E/F/G/) | [EA,] A !tenuto!D/(F/G/A/) |
([B/D/G,/]d/c/B/) (A/G/F/E/) | (F/G/F/E/) D2 | [DB,] [DA,] [DG,] [DA,] | ([DB,] G) ([A2G] F/D/) | [B4D4G,4] |

